outputs/icons/general/priority_urgent_round.svg

<svg xmlns="http://www.w3.org/2000/svg" width="1200" height="1200" fill="none"><path fill="#000" d="M550 622.22V444.445C550 420 572.5 400 600 400s50 20 50 44.445V622.22c0 24.445-22.5 44.445-50 44.445s-50-20-50-44.445M594.445 711.11c-24.545 0-44.445 19.9-44.445 44.445S569.9 800 594.445 800h11.11C630.1 800 650 780.1 650 755.555s-19.9-44.445-44.445-44.445z"/><path fill="#000" fill-rule="evenodd" d="M1100 600c0 276.14-223.855 500-500 500-276.143 0-500-223.86-500-500 0-276.142 223.857-500 500-500 276.145 0 500 223.858 500 500M600.05 950c43.505 0 79.1-32.31 79.1-71.795H520.945c0 39.485 35.205 71.795 79.105 71.795m237.3-215.385v-179.49c0-110.203-64.86-202.458-177.975-226.869v-24.411c0-29.794-26.5-53.845-59.325-53.845s-59.325 24.051-59.325 53.845v24.411c-113.513 24.411-177.98 116.309-177.98 226.869v179.49l-51.018 46.31c-24.918 22.61-7.515 61.38 27.684 61.38H860.29c35.2 0 53-38.77 28.08-61.38z"/></svg>

<svg width="1200" height="1200" viewBox="0 0 1200 1200" fill="none" xmlns="http://www.w3.org/2000/svg"><path d="M550 622.22V444.445C550 420 572.5 400 600 400C627.5 400 650 420 650 444.445V622.22C650 646.665 627.5 666.665 600 666.665C572.5 666.665 550 646.665 550 622.22Z" fill="#1D1E23"/><path d="M594.445 711.11C569.9 711.11 550 731.01 550 755.555C550 780.1 569.9 800 594.445 800H605.555C630.1 800 650 780.1 650 755.555C650 731.01 630.1 711.11 605.555 711.11H594.445Z" fill="#1D1E23"/><path fill-rule="evenodd" d="M1100 600C1100 876.14 876.145 1100 600 1100C323.857 1100 100 876.14 100 600C100 323.858 323.857 100 600 100C876.145 100 1100 323.858 1100 600ZM600.05 950C643.555 950 679.15 917.69 679.15 878.205H520.945C520.945 917.69 556.15 950 600.05 950ZM837.35 734.615V555.125C837.35 444.922 772.49 352.667 659.375 328.256V303.845C659.375 274.051 632.875 250 600.05 250C567.225 250 540.725 274.051 540.725 303.845V328.256C427.212 352.667 362.745 444.565 362.745 555.125V734.615L311.727 780.925C286.809 803.535 304.212 842.305 339.411 842.305H860.29C895.49 842.305 913.29 803.535 888.37 780.925L837.35 734.615Z" fill="#1D1E23"/></svg>
